X: 122
T: No_49_The_Sioux_Woman_Defends_Her_Children.krn
%%abc-version 2.0
%%abcx-abcm2ps-target-version 5.9.1 (29 Sep 2008)
%%abc-creator hum2abc beta
%%abcx-conversion-date 2020/08/10 18:54:56
%%gracespace 0 6 6
%%humdrum-veritas 2341946684
%%humdrum-veritas-data 1411133361
%%linebreak <none>
%%barnumbers 0
L: 1/8
M: 2/4
%%staves {1 2}
V: 1 clef=bass
V: 2 clef=bass
K: D
[V:1] [K:clef=bass][M:2/4](3FFF DA, | 
[V:2] [K:clef=bass][M:2/4]G,,G,, G,,G,, | 
[V:1] D2D2- | 
[V:2] G,,G,, G,,G,, | 
[V:1] DD/D/ !fermata!A,D/D/ | 
[V:2] z4 | 
[V:1] EF DA,/A,/ ||  
[V:2] z4 ||  
[V:1] [M:3/4]A,2A,3A,/A,/ ||  
[V:2] [M:3/4]z6 ||  
[V:1] [M:2/4]F,F,D,2 ||  
[V:2] [M:2/4]z4 ||  
[V:1] [M:3/4](3:2:1A,A,(3:2:1F,/A,4 | 
[V:2] [M:3/4]z6 | 
[V:1] A,F, F,D, (3:2:1F,F,(3:2:1E,/ | 
[V:2] z6 | 
[V:1] D,D, D,A,,D,2 | 
[V:2] z6 | 
[V:1] D,6 |]  
[V:2] z6 |]  


